X: 40754
T: Touch Of Gaelic
R: waltz
M: 3/4
K: Gmajor
B2 c2|d6|B4 A2|A2 G4|A4 B2|D4 D2|E3 D E2|G6-|G2
B2 c2|d6|B4 A2|A2 G4|A4 B2|D4 D2|E3 D E2|G6-|G4||
D2|G4 G2|c4 d2|e6|d4 de|d6|B2 A2 G2|c6|d4 e2|
B2 d4|B4 A2|A2 G4|A4 B2|D4 D2|E3 D E2|G6-|G2||

